X:545
T: Primrose Path
S: B.Breathnach:"Ceol Rince na hEireann" IV/110 (gan ainm)
Z: B.Black
L: 1/8
M: 4/4
R: reel
K: Edor
Eeed B2AG|FDAD BDAF|Eeed BABd|eBAc BE E2 :|
Beef gfeg|fdad bdad|Beef g2 fg|afdf e2 e2|
Beef gfeg|fdad bdad|gbag fagf|Bgfd e2 e2 ||
